gnomExtensions/.local/share/gnome-shell/extensions/Bluetooth-Battery-Meter@maniacx.github.com/icons/hicolor/scalable/actions/bbm-modem-symbolic.svg

<svg height="16" viewBox="0 0 16 16" width="16" xmlns="http://www.w3.org/2000/svg"><path d="m11.085183 2.1941193v5.1847472l-7.3853286-.0081908c-.7074821-.0005165-1.2682296.0662286-1.7391701.2429923-.4536602.1621724-.8341117.4784148-1.0729886.8955224-.3130426.5638337-.36859453 1.274574-.38769573 2.0777216.01910635.803108.07466148 1.511168.38769573 2.074991.2388556.417107.6193068.736081 1.0729886.898252.4709405.176765 1.0316664.239753 1.7391701.240263l8.6030216.00546c.7064.000517 1.265503-.06457 1.736439-.240262.453663-.16217.836844-.481145 1.07572-.898252.312928-.565851.36578-1.275376.384965-2.080452-.019615-.7995157-.073616-1.5066748-.384965-2.0695308-.238853-.4171081-.622031-.7360803-1.07572-.8982526-.19647-.0733159-.410156-.1258885-.641608-.1638151v-5.2611942zm.131052 8.3927927h2.143247v1.070259h-2.143247z" fill="#2e3436"/></svg>

<?xml version="1.0" encoding="UTF-8"?>
<svg height="16px" viewBox="0 0 16 16" width="16px" xmlns="http://www.w3.org/2000/svg">
    <path d="M 11.085183,2.1941193 V 7.3788665 L 3.6998544,7.3706757 C 2.9923723,7.3701592 2.4316248,7.4369043 1.9606843,7.613668 C 1.5070241,7.7758404 1.1265726,8.0920828 0.8876957,8.5091904 C 0.5746531,9.0730241 0.51910117,9.7837644 0.49999997,10.586912 C 0.51910632,11.39002 0.57466145,12.09808 0.8876957,12.661903 C 1.1265513,13.07901 1.5070025,13.397984 1.9606843,13.560155 C 2.4316248,13.73692 2.9923507,13.799908 3.6998544,13.800418 L 12.302876,13.805878 C 13.009276,13.806395 13.568379,13.741308 14.039315,13.565616 C 14.492978,13.403446 14.876159,13.084471 15.115035,12.667364 C 15.427963,12.101513 15.480815,11.391988 15.5,10.586912 C 15.480385,9.7873963 15.426384,9.0802372 15.115035,8.5173812 C 14.876182,8.1002731 14.493004,7.7813009 14.039315,7.6191286 C 13.842845,7.5458127 13.629159,7.4932401 13.397707,7.4553135 V 2.1941193 Z M 11.216235,10.586912 H 13.359482 V 11.657171 H 11.216235 Z" fill="#2e3434"/>
</svg>
